!!!!SEGMENT: pl-stab--24c_nowakiewicz-kazimierz--hej-bracia-czy-spicie.krn
!!!cenid: 18xx:3392
!!!COM: Nowakiewicz, Kazimierz
!!!COM-rismID: pe30020309
!!!CDT: <1800->1824
!!!CNT: Polish
!!!OTL: Hej bracia czy śpicie
!!!PDT: 1864
!!!AGN:
!!!SMS-siglum: PL-STAb
!!!SMS-shelfmark: 24c
!!!SMS-shelfwork: W
!!!SMS-variant:
!!!SMS-altvar:
!!!NIFC-rismSourceID: 1001165270
!!!NIFC-rismChildID: 1001165270
!!!NIFC-islandoraID: pl-stab:3613
!!!URL-pdf-islandora: https://repozytorium.nifc.pl/islandora/object/pl-stab%3A3613/datastream/PDF/view
!!!URL-scan: https://polish.musicsources.pl/pl/lokalizacje/galeria/rekopisy/4466 @EN{Scan on Polish Music Sources Website} @PL{Skany w portalu Dziedzictwo Muzyki Polskiej w otwartym dostępie}
!!!IIIF:
!!!ONB-nifc:
!!!OMD:
!!!AIN: 1 violn 1 vox
!!!key: G
**kern	**text	**mod-text
*I"Spiew oraz SKrzypce	*	*
*mI"Violino and Voce	*	*
*Ivox&Ivioln	*	*
*ICvox&ICstr	*	*
*clefG2	*	*
*k[f#]	*	*
*G:	*	*
*M2/4	*	*
=1	=1	=1
8dd\	.	.
4dd\	.	.
8dd\	.	.
=2	=2	=2
8cc#X\L	.	.
8dd\	.	.
8ee\	.	.
8dd\J	.	.
=3	=3	=3
8cc#X\L	.	.
8dd\	.	.
8a\	.	.
8dd\J	.	.
=4	=4	=4
8b/	.	.
4g/	.	.
8g/	.	.
=5	=5	=5
8f#/L	.	.
16f#/L	.	.
16e/JJ	.	.
(16d/LL	.	.
16e/	.	.
16f#/	.	.
16d/JJ)	.	.
!!LO:LB:g=original
=6	=6	=6
8g/L	.	.
16g/L	.	.
16f#/JJ	.	.
(16g/LL	.	.
16a/	.	.
16b/	.	.
16g/JJ)	.	.
=7	=7	=7
8f#/L	.	.
16f#/L	.	.
16e/JJ	.	.
(16d/LL	.	.
16e/	.	.
16f#/	.	.
16d/JJ)	.	.
=8	=8	=8
8g/	.	.
4g/	.	.
8ggw\	.	.
=9	=9	=9
8ff#\L	.	.
16ff#\L	.	.
16ee\JJ	.	.
(16dd\LL	.	.
16ee\	.	.
16ff#\	.	.
16dd\JJ)	.	.
=10	=10	=10
8gg\L	.	.
16gg\L	.	.
16ff#\JJ	.	.
(16gg\LL	.	.
16aa\	.	.
16bb\	.	.
16gg\JJ)	.	.
=11	=11	=11
8ff#\L	.	.
16ff#\L	.	.
16ee\JJ	.	.
(16dd\LL	.	.
16ee\	.	.
16ff#\	.	.
16dd\JJ)	.	.
=12	=12	=12
8gg\	.	.
4g/	.	.
8g/	.	.
!!LO:LB:g=original
!!LO:MO:ori
=13||	=13||	=13||
!!LO:MO:end
!!LO:MO:mod
!! =13	=13	=13
!!LO:MO:end
8dd\	Hej	Hej,
4dd\	Bra-	bra-
8dd\	-cia	-cia,
=14	=14	=14
8cc#X\L	czy	czy
8dd\J	.	.
8ee\	spi-	śpi-
8dd\	-cie	-cie,
=15	=15	=15
8cc#X\	czy	czy
8dd\	wszys-	wszy-
8a/	-cy	-scy
8dd\	ba-	ba-
=16	=16	=16
8b/	-czy-	-czy-
4g/	-cie	-cie?
8r	.	.
=17	=17	=17
8f#/	dzi-	Dzi-
8f#/	-wy	-wy
8d/	nie-	nie-
8f#/	-sły-	-sły-
=18	=18	=18
8g/	-cha-	-cha-
4b/	-ne	-ne!
8g/	.	.
=19	=19	=19
8f#/	dzi-	Dzi-
8f#/	-wy	-wy
8d/	nie-	nie-
8f#/	-sły-	-sły-
=20	=20	=20
8g/	-cha-	-cha-
4b/	.	.
8g/	-ne	-ne!
!!LO:LB:g=original
=21	=21	=21
8ff#\L	.	.
16ff#\L	.	.
16ee\JJ	.	.
16dd\LL	.	.
16ee\	.	.
16ff#\	.	.
16dd\JJ	.	.
=22	=22	=22
8gg\L	.	.
16gg\L	.	.
16ff#\JJ	.	.
16gg\LL	.	.
16aa\	.	.
16bb\	.	.
16gg\JJ	.	.
=23	=23	=23
8ff#\L	.	.
16ff#\L	.	.
16ee\JJ	.	.
16dd\LL	.	.
16ee\	.	.
16ff#\	.	.
16dd\JJ	.	.
=24	=24	=24
8gg\	.	.
4gg\	.	.
8g/	.	.
!!LO:MO:ori
=25||	=25||	=25||
!!LO:MO:end
!!LO:MO:mod
!! =25	=25	=25
!!LO:MO:end
8dd\	Oj	Oj
4dd\	trwo-	trwo-
8dd\	-ga	-ga!
=26	=26	=26
8cc#X\L	dla	Dla
8dd\J	.	.
8ee\L	Bo-	Bo-
8dd\J	-ga	-ga,
=27	=27	=27
8cc#X\	cóż	cóż
8dd\	.	.
8b\	się	się
8dd\	to	to
!!LO:LB:g=original
=28	=28	=28
8b/	dzie-	dzie-
4g/	-je	-je?
8r	.	.
=29	=29	=29
8f#/	jas-	Ja-
8f#/	-ność	-sność
8d/	w_no-	w no-
8f#/	-cy	-cy,
=30	=30	=30
8g/	choć	choć
8a/	nie	nie
8b/	dnie-	dnie-
8g/	-je	-je!
=31	=31	=31
8f#/	jas-	Ja-
8f#/	-ność	-sność
8d/	w_no-	w no-
8f#/	-cy	-cy,
=32	=32	=32
8g/	choć	choć
8g/	nie	nie
8g/	dnie-	dnie-
8g/	-je	-je!
!!LO:MO:ori
=33||	=33||	=33||
!!LO:MO:end
!!LO:MO:mod
!! =33	=33	=33
!!LO:MO:end
!LO:MO:mod=!null:null	!	!
!LO:TX:a:t=3	!	!
(16ff#\LL	.	.
16gg\	.	.
16aa\	.	.
16bb\JJ)	.	.
(16ccc\LL	.	.
16bb\	.	.
16ccc\	.	.
16aa\JJ)	.	.
=34	=34	=34
16bb\LL	.	.
16dd\	.	.
16ddd\	.	.
16dd\JJ	.	.
*rep	*	*
16bb\LL	.	.
16dd\	.	.
16ddd\	.	.
16dd\JJ	.	.
*Xrep	*	*
!!LO:LB:g=original
=35	=35	=35
!LO:MO:mod=!null:null	!	!
!LO:TX:a:t=3	!	!
(16ff#\LL	.	.
16gg\	.	.
16aa\	.	.
16bb\JJ	.	.
16ccc\LL	.	.
16bb\	.	.
16ccc\	.	.
16aa\JJ)	.	.
=36	=36	=36
16gg\LL	.	.
16dd\	.	.
16bb\	.	.
16dd\JJ	.	.
*rep	*	*
16gg\LL	.	.
16dd\	.	.
16bb\	.	.
16dd\JJ	.	.
*Xrep	*	*
=37	=37	=37
!LO:MO:mod=!null:null	!	!
!LO:TX:a:t=3	!	!
(16ff#\LL	.	.
16gg\	.	.
16aa\	.	.
16bb\JJ	.	.
16ccc\LL	.	.
16bb\	.	.
16ccc\	.	.
16aa\JJ)	.	.
=38	=38	=38
(16gg\LL	.	.
16aa\	.	.
16bb\	.	.
16ccc\JJ	.	.
16ddd\LL	.	.
16bb\	.	.
16gg\	.	.
16dd\JJ)	.	.
=39	=39	=39
(16ff#\LL	.	.
16gg\	.	.
16aa\	.	.
16bb\JJ	.	.
16ccc\LL	.	.
16bb\)	.	.
16ccc\	.	.
16aa\JJ	.	.
=40	=40	=40
8gg\	.	.
8r	.	.
8g/L	.	.
(16a/L	.	.
16b/JJ)	.	.
!!LO:LB:g=original
!!LO:MO:ori
=41||	=41||	=41||
!!LO:MO:end
!!LO:MO:mod
!! =41	=41	=41
!!LO:MO:end
8cc\	I	I
8cc\	my	my
8cc\	też	też
8cc\	pa-	pa-
=42	=42	=42
8cc/L	-trze-	-trze-
8g/J	.	.
4g/	-my	-my,
=43	=43	=43
8dd\	ale	ale
8dd\	się	się
8dd\	bo-	bo-
8dd\	.	.
=44	=44	=44
8dd/L	-je-	-je-
8g/J	.	.
4g/	-my	-my,
=45	=45	=45
4ee\	pa-	pa-
4cc\	-trząc	-trząc
=46	=46	=46
4.a/	na	na
8dd\	te	te
=47	=47	=47
8g/	dzi-	dzi-
8g/	-wy	-wy!
4r	.	.
=48	=48	=48
8eee\L	.	.
8eee\J	.	.
8ccc\L	.	.
8ccc\J	.	.
!!LO:LB:g=original
=49	=49	=49
8aa\L	.	.
8aa\J	.	.
8ddd\L	.	.
8ddd\J	.	.
=50	=50	=50
8gg\L	.	.
8gg\J	.	.
8g/	.	.
8g/	trwo-	Trwo-
=51	=51	=51
4cc\	-ga	-ga!
8r	.	.
8g/	trwo-	Trwo-
=52	=52	=52
4dd\	-ga	-ga!
8r	.	.
8g/	dla	Dla
=53	=53	=53
4ee\	Bo-	Bo-
4cc\	-ga	-ga,
=54	=54	=54
4a/	co	cóż
4dd\	się	się
=55	=55	=55
*^	*	*
8g/	16ryy	dzie-	dzie-
.	16gg/LL	.	.
8g/	16ff#/	-je	-je?
.	16ee/JJ	.	.
4rg	16dd/LL	.	.
.	16cc/	.	.
.	16b/	.	.
.	16a/JJ	.	.
=56	=56	=56	=56
8rc	8g/	.	.
8g/L	4.ryy	od	Od
8g/	.	stra-	stra-
8g/J	.	-chu	-chu
*v	*v	*	*
!!LO:LB:g=original
=57	=57	=57
4cc\	ser-	ser-
8dd\	-ce	-ce
8dd\	truch-	tru-
=58	=58	=58
8ee\	-le-	-chle-
8cc\	-je	-je!
4r	.	.
=59	=59	=59
8r	.	.
8cc\	aż	Ser-
8cc\	ser-	-ce
8cc\	-ce	tru-
=60	=60	=60
4a/	truch-	chle-
4fn/	-le-	-je,
=61	=61	=61
4d/	-je	tru-
4g/	truch-	-chle-
=62	=62	=62
4c/	-leje	-je!
4r	.	.
=63	=63	=63
8gg\L	.	.
16gg\L	.	.
16ff#X\JJ	.	.
8gg\L	.	.
16gg\L	.	.
16ff#X\JJ	.	.
=64	=64	=64
8gg\L	.	.
16gg\L	.	.
16ff#X\JJ	.	.
8gg\L	.	.
8ccc\J	.	.
!!LO:LB:g=original
=65	=65	=65
4gg\	.	.
4ee\	.	.
=66	=66	=66
8cc\L	.	.
8dd\	.	.
8ee\	.	.
8ffn\J	.	.
=67	=67	=67
8gg\L	.	.
16gg\L	.	.
16ff#X\JJ	.	.
8gg\L	.	.
16gg\L	.	.
16ff#\JJ	.	.
=68	=68	=68
8gg\L	.	.
16gg\L	.	.
16ee\JJ	.	.
8ffn\L	.	.
8dd\J	.	.
=69	=69	=69
4cc\	.	.
8ccc\	.	.
8r	.	.
!!LO:MO:ori
=70||	=70||	=70||
!!LO:MO:end
!!LO:MO:mod
!! =70	=70	=70
!!LO:MO:end
8dd\	Oj	Oj
4dd\	nie-	nie-
8dd\	-bo	-bo
=71	=71	=71
8cc#X\L	stwo-	o-
8dd\	.	-two-
8ee\	-rzo-	-rzo-
8dd\J	-ne	-ne,
!!LO:LB:g=original
=72	=72	=72
8cc#X\L	wojs-	woj-
8dd\	-Ka	-ska
8a\	.	.
8dd\J	niez-	nie-
=73	=73	=73
8b/	-li-	-zli-
4g/	-czo-	-czo-
8g/	-ne	-ne,
!!LO:MO:ori
=74||	=74||	=74||
!!LO:MO:end
!!LO:MO:mod
!! =74	=74	=74
!!LO:MO:end
8dd\	Oj	oj
4dd\	nie-	nie-
8dd\	-bo	-bo
=75	=75	=75
8cc#X\L	stwo-	o-
8dd\J	.	-two-
8ee\L	-rzo-	-rzo-
8dd\J	-ne	-ne,
=76	=76	=76
8cc#X\L	wojs-	woj-
8dd\J	-Ka	-ska
8a\L	niez-	nie-
8dd\J	-li-	-zli-
=77	=77	=77
8b/	-czo-	-czo-
4g/	-ne	-ne
8r	.	.
=78	=78	=78
8a/L	A-	a-
8a/J	.	.
8d/L	-niel-	-niel-
8f#/J	-sKie	-skie
!!LO:LB:g=original
=79	=79	=79
8g/	wi-	wi-
4b/	-dze-	-dze-
8g/	-my,	-my,
=80	=80	=80
8f#/	A-	a-
8f#/	-niel-	-niel-
8d/	-skie	-skie
8f#/	wi-	wi-
=81	=81	=81
8g/	-dze-	-dze-
4g/	-my	-my!
8r	.	.
=82	=82	=82
8ff#\L	.	.
16ff#\L	.	.
16ee\JJ	.	.
(16dd\LL	.	.
16ee\	.	.
16ff#\	.	.
16dd\JJ)	.	.
=83	=83	=83
!LO:MO:mod=!null:null	!	!
!LO:TX:b:t=Zydy:color=grey	!	!
8gg\L	.	.
16gg\L	.	.
16ff#\JJ	.	.
!LO:SIC:s=(16gg\LL:v	!	!
16gg\LL	.	.
16aa\	.	.
16bb\	.	.
!LO:SIC:s=16gg\JJ):v	!	!
16gg\JJ	.	.
=84	=84	=84
8ff#\L	.	.
16ff#\L	.	.
16ee\JJ	.	.
!LO:SIC:s=(16dd\LL:v	!	!
16dd\LL	.	.
16ee\	.	.
16ff#\	.	.
!LO:SIC:s=16dd\JJ):v	!	!
16dd\JJ	.	.
=85	=85	=85
8gg\	.	.
4gg\	.	.
8g/	.	.
!!LO:PB:g=original
=86	=86	=86
8dd\	Ej	Ej
4dd\	trwo-	trwo-
8dd\	-ga	-ga!
=87	=87	=87
8cc#X\	dla	Dla
8dd\	.	.
8ee\	Bo-	Bo-
8dd\	-ga	-ga,
=88	=88	=88
8cc#X\	co	co
8dd\	.	.
8a/	się	się
8dd\	tu	tu
=89	=89	=89
8b/	dzie-	dzie-
4g/	-je	-je?
8r	.	.
=90	=90	=90
8f#/	od	Od
4a/	stra-	stra-
8d/	-chu	-chu
=91	=91	=91
8g/L	ser-	ser-
8a/J	.	.
8b/L	-ce	-ce,
8dd/J	.	.
=92	=92	=92
8f#/	ser-	ser-
4a/	-ce	-ce
8d/	tru-	tru-
!!LO:LB:g=original
=93	=93	=93
8a/L	-chle-	-chle-
8g/J	.	.
8g/	-je	-je!
8r	.	.
=94	=94	=94
8ff#\L	.	.
16ff#\L	.	.
16ee\JJ	.	.
(16dd\LL	.	.
16ee\	.	.
16ff#\	.	.
16dd\JJ)	.	.
=95	=95	=95
8gg\L	.	.
16gg\L	.	.
16ff#\JJ	.	.
(16gg\LL	.	.
16aa\	.	.
16bb\	.	.
16gg\JJ)	.	.
=96	=96	=96
!LO:SIC:s=8ff#\L:v	!	!
(8ff#\L	.	.
16ff#\L	.	.
!LO:SIC:s=16ee\JJ:v	!	!
16ee\JJ)	.	.
!LO:SIC:s=(16dd\LL:v	!	!
16dd\LL	.	.
16ee\	.	.
16ff#\	.	.
!LO:SIC:s=16dd\JJ):v	!	!
16dd\JJ	.	.
=97	=97	=97
8gg\	.	.
4gg\	.	.
16aa\LL	.	.
16bb\JJ	.	.
=98	=98	=98
8dd\L	.	.
16ee\L	.	.
16ff#\JJ	.	.
8dd\L	.	.
16ee\L	.	.
16ff#\JJ	.	.
!!LO:LB:g=original
=99	=99	=99
8gg\L	.	.
16aa\L	.	.
16bb\JJ	.	.
8gg\L	.	.
16aa\L	.	.
16bb\JJ	.	.
=100	=100	=100
8gg\L	.	.
8bb\	.	.
8ddd\	.	.
8bb\J	.	.
=101	=101	=101
8gg\L	.	.
16aa\L	.	.
16bb\JJ	.	.
8dd\L	.	.
16ee\L	.	.
16ff#\JJ	.	.
=102	=102	=102
!LO:MO:mod=!null:null	!	!
!LO:N:vis=4	!	!
8gg\	.	.
8dd\	Hej	Hej
4dd\	pa-	pa-
=103	=103	=103
8cc#X\	-ste-	-ste-
8dd\	-rze	-rze
8ee\	mi-	mi-
8dd\	-li	-li,
=104	=104	=104
8cc#X\	dzi-	dzi-
8dd\	-siaj	-siaj
8a/	o	o
8dd/	tej	tej
!!LO:LB:g=original
=105	=105	=105
8b/	chwi-	chwi-
4g/	-li	-li
8r	.	.
=106	=106	=106
8f#/	Chrys-	Chry-
8f#/	-tus	-stus
8d/	się	się
8f#/	na-	na-
=107	=107	=107
8g/	-ro-	-ro-
4b\	-dził	-dził!
8r	.	.
=108	=108	=108
8f#/	Chry-	Chry-
8f#/	-stus	-stus
8d/	się	się
8f#/	na-	na-
=109	=109	=109
8g/	-ro-	-ro-
4g/	-dził	-dził!
8r	.	.
=110	=110	=110
8dd\	Oj	Oj
4dd\	do	do
8dd\	Bet-	Be-
=111	=111	=111
8cc#X\	-le-	-tle-
8dd\	-em	-jem
8ee\	bież-	bież-
8dd\	-cie	-cie,
!!LO:LB:g=original
=112	=112	=112
8cc#X\	tam	tam
8dd\	dzie-	dzie-
8a/	-cię	-cię
8dd\	znaj-	znaj-
=113	=113	=113
8b/	-dzie-	-dzie-
4g/	-cie	-cie,
8g/	tam	tam
=114	=114	=114
8f#/	dzie-	dzie-
8f#/	-cie	-cię
8d/	.	.
8f#/	znaj-	znaj-
=115	=115	=115
8g/	-dzie-	-dzie-
4b\	-cie	-cie,
8r	.	.
=116	=116	=116
8f#/	tam	tam
8f#/	dzie-	dzie-
8d/	-cię	-cię
8f#/	znaj-	znaj-
=117	=117	=117
8g/	-dzie-	-dzie-
4g/	-cie	-cie!
8r	.	.
!!LO:LB:g=original
!!LO:MO:ori
=118||	=118||	=118||
!!LO:MO:end
!!LO:MO:mod
!! =118	=118	=118
!!LO:MO:end
(16ff#\LL	.	.
16ee\	.	.
16dd\	.	.
16ee\JJ)	.	.
(16ff#\LL	.	.
16gg\	.	.
16aa\	.	.
16ff#\JJ)	.	.
=119	=119	=119
8gg\L	.	.
8gg\J	.	.
8bb\L	.	.
8gg\J	.	.
=120	=120	=120
8ff#\L	.	.
8aa\	.	.
8ddd\	.	.
8ff#\J	.	.
=121	=121	=121
4.gg\	.	.
8gg\	.	.
=122	=122	=122
4.ff#\	.	.
8aa\	.	.
=123	=123	=123
8.dd\L	.	.
16ccc\Jk	.	.
8.ff#\L	.	.
16bb\Jk	.	.
=124	=124	=124
4.gg\	.	.
8bb\	.	.
!!LO:LB:g=original
=125	=125	=125
8.gg\L	.	.
16bb\Jk	.	.
8.gg\L	.	.
16ddd\Jk	.	.
=126	=126	=126
4.ff#\	.	.
8aa\	.	.
=127	=127	=127
8.dd\L	.	.
16ddd\Jk	.	.
8.ff#\L	.	.
16aa\Jk	.	.
=128	=128	=128
8gg\L	.	.
16ff#\L	.	.
16ee\JJ	.	.
16dd\LL	.	.
16cc\	.	.
16b\	.	.
16a\JJ	.	.
=129	=129	=129
4g/	.	.
4dd\	.	.
=130	=130	=130
4gg 4dd 4b\	.	.
!LO:MO:mod=!null:null	!	!
!LO:TX:b:t=Staniętki 18 Grudnia 1864. Wincenty Leszczyński\nProf M(...) i Kantor	!	!
4r	.	.
!!LO:PB:g=original
==	==	==
*-	*-	*-
!!!system-decoration: [(s1)]
!!!filter-modern: tie -s | sic -sq | shed -e "s/LO:DY:(a|b|rj)/LO:dy:$1/L" | shed -e "s/TX(.*):t=P:/tx$1:t=P:/LG" | modori -m | autostem -r | shed -e "s/yy//" | shed -k -e "s/\(y([^y])/($1/" | shed -e "s/-//B" | shed -e "s/^(X?)rep$/$1REP/I" | shed -k -e "s/[<>]//g" | shed -k -e "s/r[a-gA-G]+/r/D"
!!!ENC: Filip Voros
!!!END: 2021-11-16
!!!ENC: Marta Chmielewska
!!!END: 2021-11-30
!!!EED-modern: Antoni Szymański
!!!END-modern: 2022-08-23
!!!YEC: Copyright 2022 Narodowy Instytut Fryderyka Chopina (https://polishscores.org)
!!!YEM: License CC-BY-4.0 (https://creativecommons.org/licenses/by/4.0)
